packages/icons/svg/Instruction_Universe_EssentialProduct_64px.svg

<svg xmlns="http://www.w3.org/2000/svg" viewBox="0 0 64 64"><path d="M51 33.18V19.79a2 2 0 00-1-1.73L29 5.85a2 2 0 00-2 0L6 18.06a2 2 0 00-1 1.73v24.42a2 2 0 001 1.73l21 12.21a2 2 0 001 .27 2 2 0 001-.27l6.4-3.72A13.49 13.49 0 1051 33.18zM28 8.74L46.52 19.5 39 23.86 20.5 13.09zm0 21.52L9.48 19.5l8-4.67L36 25.59zM8 22.11l18.5 10.75v21.53L8 43.64zm21.5 32.28V32.86L48 22.11v10.13a13.76 13.76 0 00-2.5-.24A13.52 13.52 0 0032 45.5a13.33 13.33 0 001.66 6.5zm16 1.61A10.5 10.5 0 1156 45.5 10.51 10.51 0 0145.5 56z"/><path d="M48.25 42.75V38h-5.5v4.75H38v5.5h4.75V53h5.5v-4.75H53v-5.5h-4.75z"/></svg>

<svg xmlns="http://www.w3.org/2000/svg" viewBox="0 0 64 64"><defs></defs><g id="Icon"><path  d="M51,33.18V19.79a2,2,0,0,0-1-1.73L29,5.85a2,2,0,0,0-2,0L6,18.06a2,2,0,0,0-1,1.73V44.21a2,2,0,0,0,1,1.73L27,58.15a2,2,0,0,0,1,.27,2,2,0,0,0,1-.27l6.4-3.72A13.49,13.49,0,1,0,51,33.18ZM28,8.74,46.52,19.5,39,23.86,20.5,13.09Zm0,21.52L9.48,19.5l8-4.67L36,25.59ZM8,22.11,26.5,32.86V54.39L8,43.64ZM29.5,54.39V32.86L48,22.11V32.24A13.76,13.76,0,0,0,45.5,32,13.52,13.52,0,0,0,32,45.5,13.33,13.33,0,0,0,33.66,52ZM45.5,56A10.5,10.5,0,1,1,56,45.5,10.51,10.51,0,0,1,45.5,56Z"/><polygon  points="48.25 42.75 48.25 38 42.75 38 42.75 42.75 38 42.75 38 48.25 42.75 48.25 42.75 53 48.25 53 48.25 48.25 53 48.25 53 42.75 48.25 42.75"/></g></svg>
